Catalina-dark/status/16/unstarred-symbolic.svg

<?xml version="1.0" encoding="UTF-8" standalone="no"?>
<svg
   xmlns:dc="http://purl.org/dc/elements/1.1/"
   xmlns:cc="http://creativecommons.org/ns#"
   xmlns:rdf="http://www.w3.org/1999/02/22-rdf-syntax-ns#"
   xmlns:svg="http://www.w3.org/2000/svg"
   xmlns="http://www.w3.org/2000/svg"
   xmlns:sodipodi="http://sodipodi.sourceforge.net/DTD/sodipodi-0.dtd"
   xmlns:inkscape="http://www.inkscape.org/namespaces/inkscape"
   width="16"
   height="16"
   version="1.1"
   id="svg7"
   sodipodi:docname="unstarred-symbolic.svg"
   inkscape:version="0.92.4 (unknown)">
  <metadata
     id="metadata11">
    <rdf:RDF>
      <cc:Work
         rdf:about="">
        <dc:format>image/svg+xml</dc:format>
        <dc:type
           rdf:resource="http://purl.org/dc/dcmitype/StillImage" />
      </cc:Work>
    </rdf:RDF>
  </metadata>
  <sodipodi:namedview
     pagecolor="#ffffff"
     bordercolor="#666666"
     borderopacity="1"
     objecttolerance="10"
     gridtolerance="10"
     guidetolerance="10"
     inkscape:pageopacity="0"
     inkscape:pageshadow="2"
     inkscape:window-width="1920"
     inkscape:window-height="1016"
     id="namedview9"
     showgrid="false"
     inkscape:zoom="16.970563"
     inkscape:cx="-22.320105"
     inkscape:cy="6.4882561"
     inkscape:window-x="0"
     inkscape:window-y="27"
     inkscape:window-maximized="1"
     inkscape:current-layer="svg7" />
  <defs
     id="defs3">
    <style
       id="current-color-scheme"
       type="text/css">.ColorScheme-Text { color:#565656; }</style>
    <style
       type="text/css"
       id="current-color-scheme-3">.ColorScheme-Text { color:#565656; }</style>
    <style
       id="current-color-scheme-36"
       type="text/css">
      .ColorScheme-Text {
        color:#666666;
      }
      </style>
  </defs>
  <path
     style="color:#565656;font-style:normal;font-variant:normal;font-weight:normal;font-stretch:normal;font-size:medium;line-height:normal;font-family:sans-serif;font-variant-ligatures:normal;font-variant-position:normal;font-variant-caps:normal;font-variant-numeric:normal;font-variant-alternates:normal;font-feature-settings:normal;text-indent:0;text-align:start;text-decoration:none;text-decoration-line:none;text-decoration-style:solid;text-decoration-color:#000000;letter-spacing:normal;word-spacing:normal;text-transform:none;writing-mode:lr-tb;direction:ltr;text-orientation:mixed;dominant-baseline:auto;baseline-shift:baseline;text-anchor:start;white-space:normal;shape-padding:0;clip-rule:nonzero;display:inline;overflow:visible;visibility:visible;opacity:1;isolation:auto;mix-blend-mode:normal;color-interpolation:sRGB;color-interpolation-filters:linearRGB;solid-color:#000000;solid-opacity:1;vector-effect:none;fill:#565656;fill-opacity:0.8;fill-rule:nonzero;stroke:none;stroke-width:1;stroke-linecap:round;stroke-linejoin:round;stroke-miterlimit:4;stroke-dasharray:none;stroke-dashoffset:0;stroke-opacity:1;color-rendering:auto;image-rendering:auto;shape-rendering:auto;text-rendering:auto;enable-background:accumulate"
     d="M 8.0019531,0.7265625 A 0.50005,0.50005 0 0 0 7.5332031,1.046875 L 5.6621094,5.9023438 0.47265625,6.1757812 A 0.50005,0.50005 0 0 0 0.18359375,7.0625 L 4.21875,10.347656 2.8847656,15.371094 A 0.50005,0.50005 0 0 0 3.640625,15.919922 L 8,13.095703 l 4.359375,2.824219 a 0.50005,0.50005 0 0 0 0.755859,-0.548828 L 11.78125,10.347656 15.816406,7.0625 A 0.50005,0.50005 0 0 0 15.527344,6.1757812 L 10.337891,5.9023438 8.4667969,1.046875 A 0.50005,0.50005 0 0 0 8.0019531,0.7265625 Z M 8,2.6171875 9.5214844,6.5644531 a 0.50005,0.50005 0 0 0 0.4394531,0.3183594 l 4.2187505,0.2226563 -3.279297,2.6699218 a 0.50005,0.50005 0 0 0 -0.167969,0.5156254 l 1.083984,4.085937 -3.5449216,-2.296875 a 0.50005,0.50005 0 0 0 -0.5429688,0 L 4.1835938,14.376953 5.2675781,10.291016 A 0.50005,0.50005 0 0 0 5.0996094,9.7753906 L 1.8203125,7.1054688 6.0390625,6.8828125 A 0.50005,0.50005 0 0 0 6.4785156,6.5644531 Z"
     id="path5"
     inkscape:connector-curvature="0" />
  <path
     style="opacity:1;fill:#525252;fill-opacity:0.09803922;stroke:none;stroke-width:0.99999994;stroke-linecap:round;stroke-linejoin:round;stroke-miterlimit:4;stroke-dasharray:none;stroke-dashoffset:0;stroke-opacity:0.86666667"
     d="M 8.0001909,2.5644148 9.6485423,6.8432885 14.220621,7.0835314 10.66739,9.9773669 11.840884,14.403663 8.0001909,11.915691 4.1594974,14.403663 5.3329924,9.9773669 1.77976,7.0835314 6.3518404,6.8432885 Z"
     id="rect816"
     inkscape:connector-curvature="0"
     sodipodi:nodetypes="ccccccccccc" />
</svg>

<svg width="16" height="16" version="1.1" xmlns="http://www.w3.org/2000/svg">
<defs>
<style id="current-color-scheme" type="text/css">.ColorScheme-Text { color:#565656; }</style>
<style id="current-color-scheme-3" type="text/css">.ColorScheme-Text { color:#565656; }</style>
<style id="current-color-scheme-36" type="text/css">.ColorScheme-Text {
        color:#666666;
      }</style>
</defs>
<path d="m8.002 0.72656a0.50005 0.50005 0 0 0-0.46875 0.32031l-1.8711 4.8555-5.1895 0.27344a0.50005 0.50005 0 0 0-0.28906 0.88672l4.0352 3.2852-1.334 5.0234a0.50005 0.50005 0 0 0 0.75586 0.54883l4.3594-2.8242 4.3594 2.8242a0.50005 0.50005 0 0 0 0.75586-0.54883l-1.334-5.0234 4.0352-3.2852a0.50005 0.50005 0 0 0-0.28906-0.88672l-5.1895-0.27344-1.8711-4.8555a0.50005 0.50005 0 0 0-0.46484-0.32031zm-0.0019531 1.8906 1.5215 3.9473a0.50005 0.50005 0 0 0 0.43945 0.31836l4.2188 0.22266-3.2793 2.6699a0.50005 0.50005 0 0 0-0.16797 0.51563l1.084 4.0859-3.5449-2.2969a0.50005 0.50005 0 0 0-0.54297 0l-3.5449 2.2969 1.084-4.0859a0.50005 0.50005 0 0 0-0.16797-0.51563l-3.2793-2.6699 4.2188-0.22266a0.50005 0.50005 0 0 0 0.43945-0.31836z" color="#565656" color-rendering="auto" dominant-baseline="auto" fill="#565656" fill-opacity=".8" image-rendering="auto" shape-rendering="auto" solid-color="#000000" style="font-feature-settings:normal;font-variant-alternates:normal;font-variant-caps:normal;font-variant-ligatures:normal;font-variant-numeric:normal;font-variant-position:normal;isolation:auto;mix-blend-mode:normal;shape-padding:0;text-decoration-color:#000000;text-decoration-line:none;text-decoration-style:solid;text-indent:0;text-orientation:mixed;text-transform:none;white-space:normal"/>
<path d="m8.0002 2.5644 1.6484 4.2789 4.5721 0.24024-3.5532 2.8938 1.1735 4.4263-3.8407-2.488-3.8407 2.488 1.1735-4.4263-3.5532-2.8938 4.5721-0.24024z" fill="#525252" fill-opacity=".098039"/>
</svg>
